dist/svgs/core-ui-icons/free/cil-screen-desktop.svg

<svg xmlns="http://www.w3.org/2000/svg" viewBox="0 0 512 512"><path d="M40 392h200v72h-80v32h192v-32h-80v-72h200a24.028 24.028 0 0024-24V72a24.028 24.028 0 00-24-24H40a24.028 24.028 0 00-24 24v296a24.028 24.028 0 0024 24zm8-312h416v280H48z"/></svg>

<svg xmlns="http://www.w3.org/2000/svg" viewBox="0 0 512 512">
  <path fill="var(--ci-primary-color, currentColor)" d="M40,392H240v72H160v32H352V464H272V392H472a24.028,24.028,0,0,0,24-24V72a24.028,24.028,0,0,0-24-24H40A24.028,24.028,0,0,0,16,72V368A24.028,24.028,0,0,0,40,392ZM48,80H464V360H48Z" class="ci-primary"/>
</svg>
